Catalina-dark/status/16/touchpad-disabled-symbolic.svg

<svg width="16" height="16" version="1.1" xmlns="http://www.w3.org/2000/svg">
<path d="m11 11v1c0 0.27 0.1 0.53 0.28 0.72l0.78 0.78-0.78 0.78c-0.18 0.18-0.28 0.44-0.28 0.72v1h1c0.28 0 0.54-0.1 0.72-0.28l0.78-0.79 0.78 0.79c0.18 0.18 0.44 0.28 0.72 0.28h1v-1c0-0.28-0.1-0.54-0.28-0.72l-0.78-0.78 0.78-0.78c0.18-0.19 0.28-0.45 0.28-0.72v-1h-1c-0.28 0-0.54 0.1-0.72 0.28l-0.78 0.78-0.78-0.78c-0.18-0.18-0.44-0.28-0.72-0.28z" fill="#5c616c"/>
<path d="m1 1c-1 0-1 1-1 1v11s0 1 1 1h9v-2h-1v-2h7v-8c0-1-1-1-1-1zm1 2h12v6h-12zm0 7h5v2h-5z" fill="#5c616c" opacity=".3"/>
</svg>

<svg xmlns="http://www.w3.org/2000/svg" width="16" height="16" version="1.1">
 <path style="fill:#5c616c" d="M 11,11 V 12 C 11,12.27 11.1,12.53 11.28,12.72 L 12.06,13.5 11.28,14.28 C 11.1,14.46 11,14.72 11,15 V 16 H 12 C 12.28,16 12.54,15.9 12.72,15.72 L 13.5,14.93 14.28,15.72 C 14.46,15.9 14.72,16 15,16 H 16 V 15 C 16,14.72 15.9,14.46 15.72,14.28 L 14.94,13.5 15.72,12.72 C 15.9,12.53 16,12.27 16,12 V 11 H 15 C 14.72,11 14.46,11.1 14.28,11.28 L 13.5,12.06 12.72,11.28 C 12.54,11.1 12.28,11 12,11 Z"/>
 <path style="opacity:0.3;fill:#5c616c" d="M 1,1 C 0,1 0,2 0,2 V 13 C 0,13 0,14 1,14 H 10 V 12 H 9 V 10 H 16 V 2 C 16,1 15,1 15,1 Z M 2,3 H 14 V 9 H 2 Z M 2,10 H 7 V 12 H 2 Z"/>
</svg>
